X: 1
T: BEAUX OF LONDON CITY
S: News
O: Adderbury
P: Ch(AB3)6
B: Morris Ring
Z: 2005 John Chambers <jc@trillian.mit.edu>
M: 6/8
L: 1/8
K: F
P: A
C | F>FF AGF A<cC | F2F "*"A2G F2C | F>FF AGF A<cC | "*"F>CF A2G F2 :|
P: B
|: c2B AGF Ac2 | G2G G2A B3 | c2B AGF A<cC | "*"F>CF A2G F3 :|
P: Alt.bar A2 in bars A2, A4 and B4
| F>CF A2G F2C | "or"y| F>EF    y3 y3 y3  y3 y3 y3  y3 y3 y3  y3 y3 y3
